X: 622
%
U:~=!turn!
T: Welcome Whisky back Again
C:Neil Gow
O:Scotland
B:Keith Norman MacDonald : "The Skye collection of the best reels & strathspeys extant" : 1887
Z:Ralph Palmer
N:"Whisky" is the spelling preferred in Great Britain.
R:Strathspey
M:C
L:1/8
K:Bb
B,<BB>d c>Bcd | BcGB F>D C2 | B,<BB>d {/d}c>Bc>d | B>FG<B F>D B,2 :| d<f f>g f>dc>B | d<ff>g f>d c2 |
B<ff>g f>dc>d | B>FG<B FD B,2 | d<ff>g f>dc>B | d<ff>g fdc>e | d<fc<e B>c {Bc}d>c | B>FG<B FD B,2 |]


